X:180
T:GB/6a/180 Yonder Stands a Lovely Creature 
%%VWML:GB-6a-180-0
F:http://www.vwml.org/record/GB/6a/180
C:Transcribed by Simon Furey and Lewis Jones
L:1/4
M:4/4
I:linebreak $
K:Dmix
G G A B | d d c/B/ A | d A A F | G A E2 |$ E F/G/ A B | A D B, D | E F/G/ A B | A/G/ E D2 |]

